!!!!SEGMENT: pl-kk--kk-i-636--003-011_anonim--in-sabbato-sancto-responsorium-8vum.krn
!!!cenid: 18xx:4557
!!!COM: Anonim
!!!COM-rismID: pe30004985
!!!CDT:
!!!CNT:
!!!OPR: In Sabbato Sancto
!!!OTL: Responsorium 8vum
!!!OMV: 011
!!!PDT:
!!!AGN: Sacred
!!!YEC: Copyright 2022 Narodowy Instytut Fryderyka Chopina (https://polishscores.org)
!!!YEM: License CC-BY-4.0 (https://creativecommons.org/licenses/by/4.0)
!!!SMS-siglum: PL-Kk
!!!SMS-shelfmark: Kk.I.636
!!!SMS-variant:
!!!SMS-altvar:
!!!SMS-shelfwork: 003-011 M
!!!NIFC-rismSourceID: 1001216440
!!!NIFC-rismChildID: 1001217618
!!!NIFC-islandoraID: pl-kk:40786
!!!URL-pdf-islandora: https://repozytorium.nifc.pl/islandora/object/pl-kk%3A40786/datastream/PDF/view
!!!URL-scan: https://polish.musicsources.pl/pl/lokalizacje/galeria/rekopisy/7271/1 @EN{Scan on Polish Music Sources Website} @PL{Skany w portalu Dziedzictwo Muzyki Polskiej w otwartym dostępie}
!!!IIIF:
!!!ONB-nifc: UWAGA: Lamentacje i Responsoria In Sabbato Sancto na skanach: S – 15-20, A – 37-42, T – 60-66, B - 86-92. Każda Lamentacja i Responsorium to oddzielne pliki.
!!!AIN: 1 alto 1 bass 1 soprn 1 tenor
!!!key:
**kern	**text	**dynam	**kern	**text	**kern	**text	**kern	**text
*part4	*part4	*part4	*part3	*part3	*part2	*part2	*part1	*part1
*staff4	*staff4	*	*staff3	*staff3	*staff2	*staff2	*staff1	*staff1
*I"Basso	*	*	*I"Tenore	*	*I"Alto	*	*I"Soprano.	*
*I'B.	*	*	*I'T.	*	*I'A.	*	*I'S.	*
*Ibass	*	*	*Itenor	*	*Ialto	*	*Isoprn	*
*ICvox	*	*	*ICvox	*	*ICvox	*	*ICvox	*
*clefF4	*	*	*clefC4	*	*clefC3	*	*clefC1	*
*k[b-e-a-]	*	*	*k[b-e-a-]	*	*k[b-e-a-]	*	*k[b-e-a-]	*
*E-:	*	*	*E-:	*	*E-:	*	*E-:	*
*M2/2	*	*	*M2/2	*	*M2/2	*	*M2/2	*
*met(c|)	*	*	*met(c|)	*	*met(c|)	*	*met(c|)	*
=1	=1	=1	=1	=1	=1	=1	=1	=1
*2\right	*	*	*2\right	*	*2\right	*	*2\right	*
2E-\	E-	.	2B-\	E-	2e-\	E-	2g\	E-
2E-\	-sti-	.	2B-\	-sti-	2e-\	-sti-	2g\	-sti
=2	=2	=2	=2	=2	=2	=2	=2	=2
2D\	-ma-	.	2c-X\	-ma-	2f\	-ma-	2a-\	ma-
4D\	-tus	.	4c-\	-tus	4f\	-tus	4a-\	-tus
4D\	sum	.	4B-\	sum	4f\	sum	4a-\	sum
!LO:LB:g=original	!	!	!LO:LB:g=original	!	!LO:LB:g=original	!	!LO:LB:g=original	!
=3	=3	=3	=3	=3	=3	=3	=3	=3
2E-\	cum	.	2B-\	cum	2f\	cum	2a-\	cum
4E-\	de-	.	4B-\	de-	4e-\	de-	4g\	de-
4E-\	-scen-	.	4B-\	-scen-	4e-\	-scen-	4g\	-scen-
=4	=4	=4	=4	=4	=4	=4	=4	=4
2.G\	-den-	.	2B-\	-den-	2.e-\	-den-	2.b-\	-den-
.	.	.	2d-X\	-ti-	.	.	.	.
4G\	-ti-	.	.	.	4e-\	-ti-	4b-\	-ti-
=5	=5	=5	=5	=5	=5	=5	=5	=5
2A-\	-bus	.	2c\	-bus,	2e-\	-bus	2cc\	-bus
2A-\	in	.	4c\	in-	2a-\	in	2cc\	in
.	.	.	4e-\	.	.	.	.	.
=6	=6	=6	=6	=6	=6	=6	=6	=6
2An\	la-	.	2e-\	-la-	2g-X\	la-	2cc\	la-
4A\	-cum,	.	4e-\	-cum,	4g-\	-cum.	4cc\	-cum,
4r	.	.	4r	.	4r	.	4r	.
=7	=7	=7	=7	=7	=7	=7	=7	=7
!	!	!	!LO:TX:a:t=1	!	!LO:TX:a:t=1	!	!LO:TX:a:t=1	!
2An\	fac-	.	1r	.	1r	.	1r	.
4A\	-tus	.	.	.	.	.	.	.
4A\	sum	.	.	.	.	.	.	.
!LO:LB:g=original	!	!	!LO:LB:g=original	!	!	!	!LO:LB:g=original	!
=8	=8	=8	=8	=8	=8	=8	=8	=8
4An\	si-	.	4e-\	si-	4g-X\	si-	4cc\	si-
4A\	-cut	.	4e-\	-cut	4g-\	-cut	4cc\	-cut
4A\	ho-	.	4e-\	ho-	4g-\	ho-	4cc\	ho-
4A\	-mo	.	4e-\	-mo	4g-\	-mo	4cc\	-mo
!	!	!	!	!	!LO:LB:g=original	!	!	!
=9	=9	=9	=9	=9	=9	=9	=9	=9
2B-\	si-	.	2d\	si-	2.f\	si-	2cc\	si-
2B-\	-ne	.	2d\	-ne	.	.	2b-\	-ne
.	.	.	.	.	4f\	-ne	.	.
=10	=10	=10	=10	=10	=10	=10	=10	=10
4c-X\	ad	.	4e-\	ad-	4f\	ad-	4b-\	ad-
4c-\	ju-	.	4e-\	-ju-	4f\	-ju-	4b-\	-ju-
4c-\	-to-	.	4e-\	-to-	4f\	-to-	4an\	-to-
8c-\	-ri-	.	8e-\	-ri-	8f\	-ri-	8a\	-ri-
8c-\	-o	.	8e-\	-o	8f\	-o	8a\	-o
!	!	!	!	!	!	!	!LO:LB:g=original	!
=11	=11	=11	=11	=11	=11	=11	=11	=11
2B-\	in-	.	2d\	in-	2f\	in-	2b-\	in-
4B-\	-ter	.	2d\	-ter	2f\	-ter	2b-\	-ter
4A-\	.	.	.	.	.	.	.	.
!LO:LB:g=original	!	!	!LO:LB:g=original	!	!	!	!	!
=12	=12	=12	=12	=12	=12	=12	=12	=12
2G\	mor-	.	4e-\	mor-	2e-\	mor-	2b-\	mor-
.	.	.	4d-X\	.	.	.	.	.
4A-\	-tu-	.	4c\	-tu-	4e-\	-tu-	4a-X\	-tu-
4A-\	-os	.	4c\	-os,	4e-\	-os	4a-\	-os
=13	=13	=13	=13	=13	=13	=13	=13	=13
2B-\	li-	.	2B-\	li-	2e-\	li-	2g\	li-
4BB-/	-ber	.	4B-\	-ber	4d\	-ber,	4f\	-ber,
!	!	!	!	!	!	!	!LO:TX:a:t=Volti Subitto&colon;	!
4r	.	.	4r	.	4r	.	4r	.
!	!	!	!	!	!LO:LB:g=original	!	!LO:PB:g=original	!
=14	=14	=14	=14	=14	=14	=14	=14	=14
!LO:TX:a:t=1	!	!	!	!	!LO:TX:a:t=1	!	!LO:TX:a:t=2	!
1r	.	.	2B-\	fac-	1r	.	0r	.
.	.	.	2B-\	-tus	.	.	.	.
=15	=15	=15	=15	=15	=15	=15	=15	=15
1A-	sum	.	1B-	sum	2r	.	.	.
.	.	.	.	.	2f\	sum	.	.
=16	=16	=16	=16	=16	=16	=16	=16	=16
2G\	fac-	.	2Bn\	fac-	2f\	fac-	2g\	fac-
2G\	-tus	.	2B\	-tus	2f\	-tus	2g\	-tus
!	!	!	!LO:LB:g=original	!	!	!	!	!
=17	=17	=17	=17	=17	=17	=17	=17	=17
1C	sum	.	2Bn\	sum	2f\	sum,	1g	sum
.	.	.	2c\	.	2e-\	.	.	.
!LO:LB:g=original	!	!	!	!	!	!	!	!
=18	=18	=18	=18	=18	=18	=18	=18	=18
2BBn/	si-	.	2d\	si-	2f\	si-	2g\	si-
2C/	-cut	.	2c\	-cut	2e-\	-cut	2g\	-cut
=19	=19	=19	=19	=19	=19	=19	=19	=19
2AAn/	ho-	.	2.c\	ho-	2e-\	ho-	2g-X\	ho-
2AA/	-mo	.	.	.	2e-\	-mo	2g-\	-mo
.	.	.	4c\	-mo	.	.	.	.
!	!	!	!	!	!LO:LB:g=original	!	!	!
=20	=20	=20	=20	=20	=20	=20	=20	=20
4AAn/	si-	.	4c\	si-	4e-\	si-	4f/	si-
4AA/	-ne	.	4c\	-ne	4e-\	-ne	4f/	-ne
4AA/	ad	.	4c\	ad-	4e-\	ad-	4f/	ad-
4AA/	ju-	.	4c\	-ju-	4e-\	-ju-	4f/	-ju-
!	!	!	!	!	!	!	!LO:LB:g=original	!
=21	=21	=21	=21	=21	=21	=21	=21	=21
4.BB-/	-to-	.	4c\	-to-	2e-\	-to-	2f/	-to-
.	.	.	4c\	-ri-	.	.	.	.
8BB-/	-ri-	.	.	.	.	.	.	.
4BB-/	-o	.	4B-\	-o,	8d\	-ri-	8f/	-ri-
.	.	.	.	.	8d\	-o	8f/	-o
!	!	!	!LO:TX:b:t=V.S.	!	!	!	!	!
4r	.	.	4r	.	4r	.	4r	.
!LO:LB:g=original	!	!	!LO:PB:g=original	!	!	!	!	!
=22	=22	=22	=22	=22	=22	=22	=22	=22
!	!	!	!LO:TX:a:t=1	!	!LO:TX:a:t=1	!	!LO:TX:a:t=1	!
2B-\	in-	f	1r	.	1r	.	1r	.
2B-\	-ter	.	.	.	.	.	.	.
=23	=23	=23	=23	=23	=23	=23	=23	=23
2.A-\	mor-	.	4r	.	4r	.	4r	.
.	.	.	2d\	mor-	2f\	mor-	2b-\	mor-
4A-\	-tu-	.	4d\	-tu-	4f\	-tu-	4b-\	-tu-
=24	=24	=24	=24	=24	=24	=24	=24	=24
2G\	-os	.	2d\	-os	2f\	-os,	2bn\	-os
4GG/	li-	.	4d\	li-	4f\	li-	4b\	li-
4GG/	-ber,	.	4d\	-ber	4f\	-ber,	4b\	-ber,
!	!	!	!	!	!LO:LB:g=original	!	!	!
=25	=25	=25	=25	=25	=25	=25	=25	=25
4AA-X/	po-	.	4d\	po-	4f\	po-	4bn\	po-
4AA-/	-su-	.	4c\	-su-	4e-\	-su-	4cc\	-su-
4AA-/	-e-	.	4d\	-e-	4e-\	-e-	4cc\	-e-
4AA-/	-runt	.	4E-/	-runt	4e-\	-runt	4cc\	-runt
!LO:LB:g=original	!	!	!LO:LB:g=original	!	!	!	!LO:LB:g=original	!
=26	=26	=26	=26	=26	=26	=26	=26	=26
4AA-/	me	.	4E-/	me	4c\	me	4cc\	me
4AA-/	in	.	4E-/	in	4c\	in	4cc\	in
4AA-/	la-	.	4En/	la-	4c\	la-	4b-X\	la-
4AA-/	-cu	.	4E/	-cu	4c\	-cu	4a-\	-cu
=27	=27	=27	=27	=27	=27	=27	=27	=27
2AA-/	in-	.	2F/	in-	2c\	in-	2a-\	in-
4AA-/	-fe-	.	4G/	-fe-	4c\	-fe-	4g\	-fe-
4AA-/	-ri-	.	4A-/	-ri-	4c\	-ri-	4f\	-ri-
=28	=28	=28	=28	=28	=28	=28	=28	=28
2BB-/	-o-	.	2G/	-o-	2B-/	-o-	2e-/	-o-
4BB-/	.	.	4F/	-ri,	4B-/	-ri.	4d/	-ri,
4B-\	-ri,	.	4r	.	4r	.	4r	.
!	!	!	!	!	!LO:LB:g=original	!	!	!
=29	=29	=29	=29	=29	=29	=29	=29	=29
2B-\	et	.	2r	.	2r	.	2r	.
2B-\	in	.	4r	.	4r	.	4r	.
.	.	.	4d\	in	4f\	in	4b-\	in-
!LO:LB:g=original	!	!	!LO:LB:g=original	!	!	!	!LO:LB:g=original	!
=30	=30	=30	=30	=30	=30	=30	=30	=30
2.B-\	te-	.	2e-\	te-	2g-X\	te-	2cc-X\	-te-
.	.	.	2e-\	-ne-	2g-\	-ne-	2cc-\	-ne-
4B-\	-ne-	.	.	.	.	.	.	.
=31	=31	=31	=31	=31	=31	=31	=31	=31
2A-\	-bro-	.	2d\	-bro-	2f\	-bro-	2cc-X\	-bro-
4A-\	-sis,	.	4d\	-sis	4f\	-sis	4b-\	-sis,
4A-\	et	.	4d\	et	4f\	et	4b-\	et
=32	=32	=32	=32	=32	=32	=32	=32	=32
2G-X\	in	.	2e-\	in	2e-\	in	2b-\	in
4G-\	um-	.	4B-\	um-	4e-\	um-	4b-\	um-
4G-\	-bra	.	4B-\	-bra	4e-\	-bra,	4b-\	-bra
=33	=33	=33	=33	=33	=33	=33	=33	=33
2F\	um-	.	1B-	um-	2d\	um-	2a-\	um-
2E-\	.	.	.	.	2e-\	.	2g-X\	.
=34	=34	=34	=34	=34	=34	=34	=34	=34
2D\	.	.	2.B-\	.	2f\	.	2a-\	.
2E-\	-bra	.	.	.	2e-\	-bra	2g-X\	-bra
.	.	.	4B-\	-bra	.	.	.	.
!LO:LB:g=original	!	!	!LO:LB:g=original	!	!LO:LB:g=original	!	!LO:LB:g=original	!
=35	=35	=35	=35	=35	=35	=35	=35	=35
1AA-	mor-	.	1c-X	mor-	1e-	mor-	1a-	mor-
=36	=36	=36	=36	=36	=36	=36	=36	=36
2.E-\	-tis,	.	2.B-\	-tis,	2.e-\	-tis,	2.g-X\	-tis,
4r	.	.	4r	.	4r	.	4r	.
=37	=37	=37	=37	=37	=37	=37	=37	=37
2E-\	fac-	.	2B-\	fac-	2e-\	fac-	2g-X\	fac-
2E-\	-tus	.	2B-\	-tus	2e-\	-tus	2g-\	-tus
=38	=38	=38	=38	=38	=38	=38	=38	=38
1D-X	sum	.	1B-	sum	1e-	sum	1gn	sum
=39	=39	=39	=39	=39	=39	=39	=39	=39
1C	si-	.	1B-	si-	1en	si-	1g	si-
=40	=40	=40	=40	=40	=40	=40	=40	=40
2F\	.	.	2A-\	.	2f\	.	2a-\	.
2AA-/	-cut	.	2c\	-cut	2f\	-cut	2a-\	-cut
!	!	!	!LO:LB:g=original	!	!	!	!LO:LB:g=original	!
=41	=41	=41	=41	=41	=41	=41	=41	=41
1BB-	ho-	.	1B-	ho-	1e-X	ho-	1g	ho-
!LO:LB:g=original	!	!	!	!	!	!	!	!
=42	=42	=42	=42	=42	=42	=42	=42	=42
2BB-/	-mo	.	2B-\	-mo,	2d\	-mo,	2f/	-mo
4B-\	si-	.	2r	.	2r	.	2r	.
4B-\	-ne	.	.	.	.	.	.	.
!	!	!	!	!	!LO:LB:g=original	!	!	!
=43	=43	=43	=43	=43	=43	=43	=43	=43
2B-\	si-	.	4r	.	4r	.	4r	.
.	.	.	2d\	si-	2f\	si-	2b-\	si-
2A-\	-ne	.	.	.	.	.	.	.
.	.	.	4d\	-ne	4f\	-ne	4b-\	-ne
=44	=44	=44	=44	=44	=44	=44	=44	=44
2G\	ad	.	2.d\	ad-	2f\	ad-	2.bn\	ad-
2GG/	ju-	.	.	.	2f\	-ju-	.	.
.	.	.	4d\	-ju-	.	.	4b\	-ju-
=45	=45	=45	=45	=45	=45	=45	=45	=45
1AA-	-to-	.	1c	-to-	1e-	-to-	1cc	-to-
=46	=46	=46	=46	=46	=46	=46	=46	=46
2AA-/	-ri-	.	2c\	-ri-	2e-\	-ri-	2a-\	-ri-
2AA-/	-o	.	2c\	-o	2f\	-o	2a-\	-o
!	!	!	!LO:LB:g=original	!	!	!	!LO:LB:g=original	!
=47	=47	=47	=47	=47	=47	=47	=47	=47
1BB-	in-	.	1B-	in-	1e-	in-	1g	in-
!LO:LB:g=original	!	!	!	!	!	!	!	!
=48	=48	=48	=48	=48	=48	=48	=48	=48
1BB-	-ter	.	1A-	-ter	2e-\	.	1f	-ter
.	.	.	.	.	2d\	-ter	.	.
=49	=49	=49	=49	=49	=49	=49	=49	=49
2.E-\	in-	.	4G\	in-	2.e-\	in-	4e-/	in-
.	.	.	2B-\	.	.	.	2g\	.
4E-\	-ter	.	4B-\	-ter	4e-\	-ter	4g\	-ter
=50	=50	=50	=50	=50	=50	=50	=50	=50
2E-\	mor-	.	2B-\	mor-	2e-\	mor-	2g\	mor-
2E-\	-tu-	.	2B-\	-tu-	2e-\	-tu-	2g\	-tu-
!	!	!	!	!	!LO:LB:g=original	!	!	!
=51	=51	=51	=51	=51	=51	=51	=51	=51
1E-	-os,	.	1G	-os,	1e-	-os	1b-	-os
=52	=52	=52	=52	=52	=52	=52	=52	=52
2E-\	in-	.	2B-\	in-	2e-\	in-	2g\	in-
2E-\	-ter	.	2B-\	-ter	2g\	-ter	2ee-\	-ter
=53	=53	=53	=53	=53	=53	=53	=53	=53
1E-	mor-	.	1c	mor-	1a-	mor-	[1ee-	mor-
!	!	!	!LO:LB:g=original	!	!	!	!LO:LB:g=original	!
=54	=54	=54	=54	=54	=54	=54	=54	=54
2E-\	-tu-	.	2B-\	.	2g\	-tu-	4.ee-\]	.
.	.	.	.	.	.	.	8ee-\	-tu-
2E-\	-os	.	4B-\	-tu-	2e-\	-os	2g\	-os
.	.	.	4B-\	-os	.	.	.	.
!LO:LB:g=original	!	!	!	!	!	!	!	!
=55	=55	=55	=55	=55	=55	=55	=55	=55
1BB-	li-	.	1B-	li-	1e-	li-	1f	li-
=56	=56	=56	=56	=56	=56	=56	=56	=56
1BB-	.	.	1A-	.	2e-\	.	1f	.
.	.	.	.	.	2d\	.	.	.
=57	=57	=57	=57	=57	=57	=57	=57	=57
1E-	.	.	1G	.	1e-	.	1e-	.
=58	=58	=58	=58	=58	=58	=58	=58	=58
2E-\	-ber.	.	2G/	-ber.	2e-\	-ber.	2e-/	-ber.
2r	.	.	2r	.	2r	.	2r	.
==	==	==	==	==	==	==	==	==
*-	*-	*-	*-	*-	*-	*-	*-	*-
!!!system-decoration: [(s1,s2,s3,s4)]
!!!ENC: Berenika Jozajtis
!!!END: 2023-11-23
!!!ENC: Leszek Kubiak
!!!END: 2024-10-10
